X: 1
T: Alter Sher
T: Old Sher
O: Andy Statman
S: printed MS of unknown origin
Z: 2008 John Chambers <jc:trillian.mit.edu>
M: 2/4
L: 1/16
P: Note: 48 bars
K: Ephr^G
|:"E"E4- E2DE | F2E2 E2E2 | "Dm"DGGD DGGD | DGGF FEED |
| "E"E4- E2DE | F2E2 E2BA | "E"GABA "Dm"G3F |1 "E"EFGA "Dm"GFED :|2 "E"FEE2- E2 ||
|:"E"GGGE "Am"AAAE | "E"BcBA B4 | "Am"c2BA "E"B2AG | "Dm"A2GF "E"GFE2 |
| "E"GGGE "Am"AAAE | "E"BcBA B4 | "Dm"dcBA G3F | "E"FEE2 E4 :|
|:"D"^F2A2 A=GGF | A2z2 z2d2 | "D"dccB BAA^G | GBAG FED2 |
| "D"^F2A2 A=GGF | "G"=G2z2 z2BA | "E"^GABA "Dm"G3F | "E"FEE2- E4 :|
